X:1
T:Here, O my Lord, I see thee face to face
T:Percy Whitlock (1903-1946)
T:H. Bonar (1808-1889)
T:Here, O my Lord, I see thee face to face
C:Percy Whitlock (1903-1946)
Z:H. Bonar (1808-1889)
%%score [ ( 1 2 3 ) ( 4 5 6 ) ] { ( 7 8 ) | ( 9 10 11 ) }
L:1/8
Q:1/4=84
M:4/4
K:Eb
V:1 treble nm="P1"
V:2 treble 
V:3 treble 
V:4 bass nm="P2"
V:5 bass 
V:6 bass 
V:7 treble nm="Organ" snm="Org."
V:8 treble 
V:9 bass 
V:10 bass 
V:11 bass 
V:1
 z8 |!pp! z8 | G4 F2 G2 | B3 B!<(! c2!<)! d2 | e2!>(! c2!>)! A4 | z2 c2 d2 B2 | e2 c2 A3 A | %7
w: |||||||
w: |||Lord, I * *||Here faith can|touch and han- dle|
 B2 !tenuto!G2 !tenuto!c4 | z4!<)!!<(! c4 | A2 B2 c3 c |!>(! f2 d2!>)!!pp! B4 | B4 c4 | %12
w: |||||
w: |Here|would I grasp with|firm- er hands|Thy grace;|
!mf! z2 c2 B2 B2 | !tenuto!e6 d2 | B3 B c2 G2 | B8 | z8 | z8 | z8 | z8 | z8 | F4 G2 A2 | %22
w: ||* * on *||||||||
w: And all my|wea- ri|ness up- on Thee|lean.||||||Here would I|
 _d3!<(! d c2!<)! B2 |!>(! e6!>)! _d2 |"^cresc." _G4!mf! z4 | B4 A2 B2 | _d6!f! d2 | _g4 x2 [Bf]2 | %28
w: feed * * *||||||
w: feed up- on the|Bread of|God;|Here drink with|Thee *|Roy- al|
 [Be]4 (_G2 A2) | [B,_DB]8 | z8 | z4!mp! B4- | B4!<(! B4-!<)! |!>(! B4!>)! B4 | e6 d2 | B4 c4 | %36
w: * of _|Heav'n;|||||||
w: |||Here|_ would|_ I|lay a-|side each|
 E4 F4 | A6 A2 | c6 c2 | f4 d4 | e6 _G2 | B6 B2 | B8- | [AB-]8 | [GB]8- | !fermata![GB]8 |] %46
w: ||||||||||
w: earth- ly|load, and|taste a-|fresh the|calm of|sin for-|giv'n.|_|||
V:2
 x8 | x8 | E4 E2 E2 | A2 G2 G2 [FG]2 | [EG]2 G2 (G2 F2) | A4 G2 F2 | E2 G2 F2 F2 | F2 F2 F4 | %8
w: ||Here, O my|Lord, I see Thee|face to face; _|Here faith can|touch and han- dle|things un- seen;|
w: ||||||||
 F4 G2 A2 | A3 G F2 B2 | (A6 G2) | G4 G2 G2 | (G2 F2) (F2 E2) | [EB]4 [FA]4 | %14
w: Here would I|grasp with firm- er|hands _|Thy grace; And|all _ my _|wea- ri-|
w: ||||||
 [EG]2 [DG]2 [CE]2 E2 | (E4 D4) | x8 | x8 | x8 | x8 | x8 | _D4 F2 E2 | _D2 F2 E2 [EG]2 | %23
w: ness up- * Thee|lean. *||||||Here would I|* up- on the|
w: |||||||||
 [E_G]4 F4 | E4 (F2 _G2) | _G4 (F2 G2) | [F_c]4 ([_GB]2 A2) | _G4 A4 | (_G2 F2) E4 | x8 | x8 | z8 | %32
w: Bread of|God; Here _|drink with _|Thee the _|_ _|wine * *||||
w: |||* * the||||||
 E4 D2 E2 | A4 (G2 F2) | E4 A4 | (G2 F2 E4 | _D4) D4 | (_D4 C4) | z4 (F2 G2) | A4 (G2 F2) | %40
w: Here would I|lay a- *|side each|earth- * *|* ly|load, _|and _|taste a- *|
w: ||||||||
 B4 (A2 _G2) | _D6 D2 | [CE]4 [=DF]4 | (C8 | B,8-) | !fermata!B,8 |] %46
w: * the *|calm of|sin for-|giv'n.|_||
w: ||||||
V:3
 x8 | x8 | x8 | x8 | x8 | x8 | x8 | x8 | x8 | x8 | x8 | x8 | x8 | x8 | x8 | x8 | x8 | x8 | x8 | %19
w: |||||||||||||||||||
 x8 | x8 | x8 | x8 | x8 | x8 | x8 | x8 | B6 x2 | x8 | x8 | x8 | x8 | x8 | x8 | x8 | x8 | x8 | x8 | %38
w: ||||||||Roy-|||||||||||
 x8 | x8 | E6 E2 | x8 | x8 | x8 | x8 | x8 |] %46
w: ||fresh *||||||
V:4
 z8 |!pp! z8 | B,4 C2 B,2 | D3 D (G,=A,) =B,2 | C2 C2 C4 | E4 x2 C2 | B,2 C2 C3 C | %7
 B,2 [F,_D]2 [F,C]4 | C4!<(! C2!<)! C2 | E3 D C2 B,2 |!>(! (C2 D2- D4)!>)! |!pp! D4!mf! C2!mf! E2 | %12
 (E2 D2) (D2 B,2) | _C4 B,4 | B,2 B,2 G,2 =A,2 | (G,4 F,4) | z8 | z8 | z8 | z8 | z8 | A,4 B,2 A,2 | %22
 A,2 A,2 G,2 B,2 | (_C2 B,2)!>)!!>(! (A,2 C2) | B,4"^cresc." (B,2!mf! E2) | E4 (E2 _D2) | _D6 B,2 | %27
!f! [B,E]4 (C2 =D2) | B,6 A,2 | [_G,,_D,_G,]8 | z8 | z8 |!mp!!<(! B,4 A,2 B,2!<)! | E4 (D2 C2) | %34
 B,4 C4 | (D2 C2 B,4 | A,4) G,4 | [F,,A,]8 | x4 C4 | C4 (B,2 A,2) | _G,4 A,4 | [_D,B,]4 [D,B,]4 | %42
 [A,B,]4 [A,B,]4 | (E,4 F,4) | x8 | x8 |] %46
V:5
 x8 | x8 | E,4 A,2 G,2 | F,2 G,2 E,2 D,2 | C,2 x6 | C4 [B,D]2 A,2 | G,2 E,2 F,2 E,2 | %7
w: |||||||
 _D,2 !tenuto!B,,2 !tenuto!A,,4 | A,4 G,2 F,2 | C3 B, A,2 G,2 | F,8 | (G,2 F,2) E,2 G,2 | A,4 G,4 | %13
w: ||||||
 !tenuto!_G,4 F,4 | E,2 E,2 =A,,2 =C,2 | B,,8 | x8 | x8 | x8 | x8 | x8 | _D,4 D,2 C,2 | %22
w: |||||||||
 B,,3!<(! B,, E,2!<)! _D,2 | _C,4 _D,4 | E,4 z4 | _C4 C2 B,2 | A,4 (_G,2 F,2) | E,6 E,2 | %28
w: |||Here drink with|Thee the _|Roy- al|
 _D,4 _C,4 | x8 | x8 | x8 | G,4 F,2 G,2 | C4 (B,2 A,2) | G,4 F,4 | (B,2 A,2 G,4 | F,4) E,4 | %37
w: wine of|||||||||
 (_D,4 C,4) | z4 (A,2 G,2) | F,4 B,,4 | _C,8 | _G,,4 G,,4 | F,,6 F,,2 | [E,,B,]8- | [E,,G,B,]8- | %45
w: ||||||||
 !fermata![E,,G,B,]8 |] %46
w: |
V:6
 x8 | x8 | x8 | x8 | G,2 E,2 F,4 | x8 | x8 | x8 | x8 | x8 | x8 | x8 | x8 | x8 | x8 | x8 | x8 | x8 | %18
 x8 | x8 | x8 | x8 | x8 | x8 | x8 | x8 | x8 | x8 | x8 | x8 | x8 | x8 | x8 | x8 | x8 | x8 | x8 | %37
 x8 | x8 | x8 | x8 | x8 | x8 | x8 | x8 | x8 |] %46
V:7
!p! (E4 F2 G2 | c4 B4) |!pp! E4 z4 | z8 | z8 | z8 | z8 | z8 |!p!!<(! (F4 c4!<)! | e2) z2 z4 | z8 | %11
 z8 | z8 | z8 | z8 |"^SOLO" z4 (F2 G2 |"^Sw." B6) (c2 | e6) d2 | B3 B c4- | c2 G2 B4 | [FB]8 | %21
!pp! [_DF]4 z4 | z8 | z8 | z2 [E_G]2 [FA]2 [GB]2 | e6 z2 | z8 | z8 | z8 | z4 B4- | B4 (A2 _G2 | %31
 F8) | B2 c2 d2 e2 | a4 c2 d2 | B4 c2 d2 | [Gg]2 [Ff]2 e4 | E4 F4 | A6 A2 | c4 z4 | z8 | z8 | z8 | %42
 z8 | z8 |!pp! z8 | !fermata![GBg]8 |] %46
V:8
 x4 E4 | G2 F2 F4 | E4 x4 | x8 | x8 | x8 | x8 | x8 | (F4 G2 A2 | A2) x6 | x8 | x8 | x8 | x8 | x8 | %15
 x8 | ([DF]2 [EG]2 [GB]4-) | [GB]2 [Ac]2 [FA]4 | (G2 [FA]2 [EG]2 [DF]2 | [CE]4) E4- | (E4 D4) | %21
 x8 | x8 | x8 | x8 | [_GB]4 [FA]2 z2 | x8 | x8 | x8 | z4 [B,_D]4 | _G2 F2 E4 | E4 D4 | E4 F2 E2 | %33
 A4 G2 F2 | E4 A4 | B4 [EB]4 | _D8 | (_D4 C2) z2 | x8 | x8 | x8 | x8 | x8 | x8 | x8 | x8 |] %46
V:9
 E2 D2 [CE]2 [B,D]2 | E6 D2 | E,4 z4 | z8 | z8 | z8 | z8 | z8 | C4 C4 | [CE]2 z2 z4 | z8 | z8 | %12
w: senza Ped. * *||||||||||||
 z8 | z8 | z8 | z8 | z8 | z8 | z8 | z4 G,2 A,2 | B,8 | [_D,A,]4 z4 | z8 | z8 | z2 E,2 B,2 E2 | %25
w: |||||||||||||
 _C6 z2 | z8 | z8 | z8 | z4!ped! [_D,_G,]4 | E,2 F,2 _G,2 A,2 |"^32'" F,4 B,4 | %32
w: |||||||
 [G,B,]4 [F,A,]2 [G,B,]2 | [CE]4 [B,D]2 [A,C]2 | [G,B,]4 [F,C]4 | [B,D]2 [A,C]2 [G,C]4 | %36
w: ||||
 [F,A,]4 [E,G,]4 | A,6 x2 | z8 | z8 | z8 |!pp! _G,,8 | F,,8 | E,,8- | E,,8- | %45
w: |||||||||
 !fermata![E,,E,B,E]8 |] %46
w: |
V:10
 x8 | A,4 B,4 | x8 | x8 | x8 | x8 | x8 | x8 | A,4 G,2 F,2 | x8 | x8 | x8 | x8 | x8 | x8 | x8 | x8 | %17
 x8 | x8 | x8 | x8 | x8 | x8 | x8 | x8 | x8 | x8 | x8 | x8 | x4 _G,,4 | [A,,=C]8 | B,,8- | B,,8- | %33
 B,,8- | B,,8- | B,,8- | B,,8 | F,,6 z2 | x8 | x8 | x8 | x8 | x8 | x8 | x8 | x8 |] %46
V:11
 x8 | x8 | x8 | x8 | x8 | x8 | x8 | x8 | x8 | x8 | x8 | x8 | x8 | x8 | x8 | x8 | x8 | x8 | x8 | %19
 x8 | x8 | x8 | x8 | x8 | x8 | x8 | x8 | x8 | x8 | x8 | x8 | x8 | x8 | x8 | x8 | x8 | x8 | %37
 _D,4 C,2 x2 | x8 | x8 | x8 | x8 | x8 | x8 | x8 | x8 |] %46

